X:344090
T: Mrs MacLeod of Raasay (Miss MacLeod's Reel)(The Gray Old Lady of Raasay)
C: Trad.  Sir Alexander MacDonald. / PM J MacKay
B: https://thesession.org/tunes/340 (PM J MacKay)
B: Scots Guards I (205)
H:
O:Kevin Fraser
Z:Kevin Fraser
Q:1/2=105
K:HP
M:2/2
L:1/8
R:Reel
U: R = ///
U: r = //
U: V = !accent!
V:M gstem=up stem=down name="Melody" sname="Melody" 
V:H gstem=up stem=down name="Harmony" sname="Harmony"
V:C gstem=up stem=down name="C-Harmony" sname="C-Harmony"
V:S gstem=up stem=down dyn=up stafflines=1 clef=perc middle=G name="Snare" sname="Snare" sname="Snare"
V:B gstem=up stem=down clef=none dyn=up name="Bass" sname="Bass"
V:T gstem=up stem=down clef=none dyn=up name="Tenor" sname="Tenor"
V:BB gstem=up stem=down name="Brass Bass" sname="ABCD-C" transpose=-1  octave=-1 clef=bass
V:BC gstem=up stem=down name="Brass Chord" sname="ABCD-D" transpose=-1
V:BD gstem=up stem=down name="Brass Chord 2" sname="ABCD-B" transpose=-1
V:P gstem=up stem=down name="Piano" octave=-1
I:MIDI=program 110
%%MIDI gracedivider 4
% %score {M S B T}
%%MIDI program 109 #bagpipes
%%MIDI vol 100
%%landscape
[V:M]||        "A"{AGAG}A2 {ag}a2     {fg}f>e{g}f<a     | c>{d}c{e}c>B {g}c>{d}c{e}c>B | {AGAG}A2 {ag}a2     {fg}f>e{g}f<a       | c>{d}c{e}c>A   "Bm"{g}B>{d}B{e}B>c |
[V:M]|         "A"{AGAG}A2 {ag}a2     {fg}f>e{g}f<a     | c>{d}c{e}c>B {g}c>{d}c{e}c>e | "D"{g}f2 {g}f>g     "Bm"{a}f>e{g}f>g | "E7"a>f{g}e>c  {g}B>{d}B{e}B>c    ||
[V:M]||        "A"{AGAG}A2 {g}c<{d}A  {gef}e>c{G}c>a | c>{d}c{e}c>B {g}c>{d}c{e}c>B | {AGAG}A2 {g}c<{d}A  {gef}e>c{G}c>a   | c>{d}c{e}c>A   {g}B>{d}B{e}B>c     |
[V:M]|         "A"{AGAG}A2 {g}c<{d}A  {gef}e>c{G}c>a | c>{d}c{e}c>B {g}c>{d}c{e}c>e | "D"{g}f2 {g}f>g     "Bm"{a}f>e{g}f>g | "E7"a>f{g}e>c  {g}B>{d}B{e}B>c    ||
P: 2 Alternative (Scots Guards):
[V:M]||         {gAGAG}A2 {ag}a>g {fg}f>e{g}f<a        | c>{d}c{e}c>B {g}c>{d}c{e}c>B | {gAGAG}A2 {ag}a>g {fg}f>e{g}f<a         | c>{d}c{e}c>A {g}B>{d}B{e}B>c |
[V:M]|         {gAGAG}A2 {ag}a>g {fg}f>e{g}f<a         | c>{d}c{e}c>B {g}c>{d}c{e}c>e | {a}f>e{g}f<a {fg}f2 {g}e>f          | a>f{g}e>c  {g}B>{d}B{e}B>c   ||
[V:M]||         {gAGAG}A2 {g}c<{d}A {gef}e>A{d}c<a | {fg}e>A{g}c<{d}a {g}c>{d}c{e}c>B | {gAGAG}A2 {g}c<{d}A {gef}e>A{d}c<a  | c>{d}c{e}c>A {g}B>{d}B{e}B>c |
[V:M]|          {gAGAG}A2 {g}c<{d}A {gef}e>A{d}c<a | {fg}e>A{g}c<{d}a {g}c>{d}c{e}c>e | {a}f>e{g}f<a {fg}f2 {g}e>f          | a>f{g}e>c  {g}B>{d}B{e}B>c   ||
P: 3 The Session.org
[V:M]cB|:A2 a2 fefa|cccB c2cB|A2 a2 fefa|BBBA B2cB|A2 a2 fefa|cccB c2 e2|fffe f2ef|afec B2cB:|
[V:M]|:ABcd eAcA|cccB c2cB|ABcd eAcA BBBA B2cB|ABcd eAcA|cccB c2 e2|fffe f2ef|afec B2cB:|

